X: 138
T: No_63_The_Sound_Comes_Pleasingly.krn
%%abc-version 2.0
%%abcx-abcm2ps-target-version 5.9.1 (29 Sep 2008)
%%abc-creator hum2abc beta
%%abcx-conversion-date 2020/08/10 18:54:56
%%gracespace 0 6 6
%%humdrum-veritas 1608005423
%%humdrum-veritas-data 3338766309
%%linebreak <none>
%%barnumbers 0
L: 1/8
M: 2/4
%%staves {1 2}
V: 1 clef=bass
V: 2 clef=bass
K: C
[V:1] [K:clef=bass][M:2/4]C>C CA, | 
[V:2] [K:clef=bass][M:2/4](3!accent!G,, z G,, (3!accent!G,, z G,, | 
[V:1] G,G,G,2 | 
[V:2] (3!accent!G,, z G,, (3!accent!G,, z G,, | 
[V:1] G,>G,E,2 | 
[V:2] z4 | 
[V:1] G,>A, G,E, | 
[V:2] z4 | 
[V:1] C,C, C,3/C,/ | 
[V:2] z4 | 
[V:1] C,2C,3/C,/ | 
[V:2] z4 | 
[V:1] C,2G,3/G,/ | 
[V:2] z4 | 
[V:1] A,2G,2 | 
[V:2] z4 | 
[V:1] (3E,D,C,C,2 | 
[V:2] z4 | 
[V:1] C,>C,A,,2 | 
[V:2] z4 | 
[V:1] C,>D, C,A,, ||  
[V:2] z4 ||  
[V:1] [M:3/4]G,,>G,,G,,7/G,,/ | 
[V:2] [M:3/4]z6 | 
[V:1] G,,6 |]  
[V:2] z6 |]  


